X: 26593
T: Mick Murphy's Pub
R: reel
M: 4/4
K: Gmajor
ED|"Em"B,EEF "G"G2Bd|"Em"eBBc "D"dBAc|"G"B2AG "Em"edBA|"G"GBBG "D"A2ED|
"Em"B,EEF "G"G2Bd|"Em"eBBc "G"dggf|"Em"e2dB "Am"A2GE|"G"DGGF G2:|
Bc|"G"d2Bd "Em"edBc|"G"d2Bd "Em"edef|"G"g2fg "Am"abag|"D"fgef d2Bc|
"G"d2Bd "Am"c2Ac|"G"Bcde "D"fdef|"G"gd^cd "C"=cdec|"D"BGAF "G"G2:|

